packages/icons/svg/Payment_Cards_Monochrome_Gift_48px.svg

<svg xmlns="http://www.w3.org/2000/svg" viewBox="0 0 48 48"><path d="M42 10H6a2 2 0 00-2 2v24a2 2 0 002 2h36a2 2 0 002-2V12a2 2 0 00-2-2zm0 26H6V12h36z"/><path d="M17 34h14a1 1 0 001-1V21a1 1 0 00-1-1h-.56a3.91 3.91 0 00.56-2 4 4 0 00-7-2.62A4 4 0 0017 18a3.91 3.91 0 00.56 2H17a1 1 0 00-1 1v12a1 1 0 001 1zm1-6h5v4h-5zm12-2h-5v-4h5zm-7 0h-5v-4h5zm2 6v-4h5v4zm2-16a2 2 0 010 4h-2v-2a2 2 0 012-2zm-8 2a2 2 0 014 0v2h-2a2 2 0 01-2-2z"/></svg>

<svg xmlns="http://www.w3.org/2000/svg" viewBox="0 0 48 48"><defs></defs><g id="Icon"><path  d="M42,10H6a2,2,0,0,0-2,2V36a2,2,0,0,0,2,2H42a2,2,0,0,0,2-2V12A2,2,0,0,0,42,10Zm0,26H6V12H42Z"/><path  d="M17,34H31a1,1,0,0,0,1-1V21a1,1,0,0,0-1-1h-.56A3.91,3.91,0,0,0,31,18a4,4,0,0,0-7-2.62A4,4,0,0,0,17,18a3.91,3.91,0,0,0,.56,2H17a1,1,0,0,0-1,1V33A1,1,0,0,0,17,34Zm1-6h5v4H18Zm12-2H25V22h5Zm-7,0H18V22h5Zm2,6V28h5v4Zm2-16a2,2,0,0,1,0,4H25V18A2,2,0,0,1,27,16Zm-8,2a2,2,0,0,1,4,0v2H21A2,2,0,0,1,19,18Z"/></g></svg>
